img/about/5.svg

<svg width="36" height="36" viewBox="0 0 36 36" fill="none" xmlns="http://www.w3.org/2000/svg">
<path d="M17.1722 5.74596C17.7541 5.74596 18.3359 5.74596 18.9028 5.74596C18.9924 5.76088 19.0669 5.7758 19.1565 5.7758C20.9169 5.83548 22.6625 5.96975 24.3931 6.26813C26.8846 6.68587 29.3164 7.28264 31.5841 8.41649C32.6434 8.93867 33.6281 9.56527 34.4039 10.4903C34.8365 11.0124 35.1498 11.5794 35.2244 12.2656C35.3438 13.31 34.8514 14.1156 34.1652 14.8168C33.1805 15.8313 31.987 16.5176 30.689 17.0547C27.6156 18.3378 24.3931 18.9345 21.096 19.1881C18.0524 19.4269 15.0089 19.3373 11.9953 18.845C9.6977 18.4869 7.45982 17.9797 5.31146 17.0696C4.01349 16.5176 2.80503 15.8313 1.82037 14.8168C0.417964 13.3846 0.388126 11.7733 1.74577 10.3112C2.7752 9.20721 4.07316 8.50601 5.43081 7.954C8.56384 6.67095 11.8461 6.0891 15.2178 5.86531C15.8593 5.82056 16.5158 5.79072 17.1722 5.74596ZM17.9778 14.9959C19.5891 14.9959 21.1855 14.8467 22.7371 14.3543C23.304 14.1753 23.856 13.9366 24.3036 13.5189C24.9302 12.937 24.9451 12.1612 24.3185 11.5644C23.7516 11.0124 23.0205 10.7439 22.2746 10.5649C19.7085 9.92333 17.1125 9.92333 14.5315 10.3709C13.5916 10.535 12.6815 10.7886 11.8759 11.3705C11.0106 11.9971 10.9658 13.0116 11.8311 13.6382C12.2489 13.9366 12.7412 14.1753 13.2335 14.3543C14.7702 14.8616 16.3666 14.9959 17.9778 14.9959Z" fill="#166D44"/>
<path d="M17.9779 14.9958C16.3666 14.9958 14.7852 14.8616 13.2485 14.3543C12.7562 14.1902 12.2639 13.9515 11.8461 13.6382C10.9808 13.0116 11.0106 11.9971 11.8909 11.3705C12.6816 10.8035 13.6066 10.535 14.5465 10.3709C17.1275 9.90838 19.7235 9.9233 22.2746 10.5648C23.0206 10.7588 23.7516 11.0124 24.3186 11.5644C24.9303 12.1612 24.9302 12.9221 24.3036 13.5188C23.8561 13.9366 23.3041 14.1753 22.7371 14.3543C21.1855 14.8466 19.5892 14.9958 17.9779 14.9958ZM23.5875 12.5342C23.4234 12.4148 23.319 12.2955 23.1847 12.2358C22.767 12.0567 22.3492 11.8628 21.9166 11.7584C19.5146 11.1616 17.0977 11.1467 14.6658 11.6241C14.0094 11.7584 13.3679 12.012 12.7413 12.2805C12.3683 12.4446 12.3832 12.564 12.7264 12.7878C13.353 13.1757 14.084 13.3398 14.8001 13.4741C16.665 13.8172 18.5448 13.862 20.4396 13.6083C21.3795 13.4741 22.3194 13.31 23.1698 12.8475C23.3041 12.7729 23.4234 12.6535 23.5875 12.5342Z" fill="white"/>
<path d="M22.886 19.218C22.4086 19.9788 21.9461 20.7099 21.4538 21.4857C22.2296 22.0675 23.0054 22.6345 23.7961 23.2163C23.1993 23.7981 22.6026 24.3651 21.9909 24.9469C22.6772 25.6034 23.2889 26.2001 23.9602 26.8566C23.3784 27.4086 22.886 27.9158 22.3639 28.3933C22.1998 28.5424 22.1998 28.6618 22.2893 28.8558C22.5727 29.4078 22.8264 29.9896 23.08 30.5565C23.1248 30.6461 23.1546 30.7505 23.2143 30.8549C21.3941 31.0936 19.6038 31.1981 17.7986 31.1831C15.4115 31.1682 13.0245 30.9892 10.6821 30.5267C8.13097 30.0344 5.63946 29.3332 3.40159 27.9755C2.50644 27.4384 1.68588 26.782 1.14879 25.857C0.895164 25.3945 0.745972 24.9022 0.745972 24.3651C0.745972 21.1425 0.745972 17.92 0.745972 14.6974C0.745972 14.6378 0.745972 14.5632 0.745972 14.4587C1.04436 14.7422 1.29798 14.9958 1.58145 15.2345C2.90925 16.3386 4.43101 17.0845 6.0572 17.6514C7.81767 18.2631 9.62289 18.6659 11.4579 18.9793C14.4119 19.4865 17.3958 19.5909 20.3796 19.4268C21.2002 19.3821 22.0207 19.2926 22.886 19.218Z" fill="#166D44"/>
<path d="M35.2242 14.4886C35.2242 14.6527 35.2242 14.7721 35.2242 14.8914C35.2242 17.2785 35.1795 19.6656 35.2391 22.0527C35.269 23.3506 34.7617 24.3353 33.8367 25.1708C32.7327 26.1704 31.4347 26.8119 30.0622 27.349C28.0928 28.1248 26.034 28.5873 23.9453 28.9006C23.8707 28.9155 22.7816 29.0498 22.6324 29.0498C22.6026 28.3486 23.811 27.5877 24.5122 26.9312C23.811 26.2599 23.1993 25.6482 22.5578 25.0216C23.2292 24.3801 23.8707 23.7684 24.557 23.1119C23.6469 22.4406 22.7965 21.8139 21.9312 21.1724C22.2147 20.7248 22.528 20.322 22.7518 19.8595C23.08 19.1583 24.8106 18.9196 25.5417 18.7854C28.0033 18.3527 30.3904 17.6664 32.5984 16.458C33.4936 15.9656 34.3141 15.3987 35.0303 14.6677C35.075 14.608 35.1347 14.5632 35.2242 14.4886Z" fill="#166D44"/>
<path d="M22.4388 9.84878C19.8876 9.20725 17.2618 9.14758 14.3973 9.65483C13.532 9.80402 12.428 10.0726 11.4433 10.7738C10.8167 11.2213 10.4587 11.8629 10.4587 12.5342C10.4587 13.2056 10.7869 13.8024 11.3986 14.2499C11.8611 14.5782 12.4131 14.8616 12.9949 15.0556C14.3973 15.5181 15.9639 15.7419 17.9034 15.7419H18.0525C19.9473 15.7419 21.4989 15.533 22.946 15.0705C23.4981 14.8915 24.1993 14.6229 24.796 14.0709C25.2585 13.6383 25.4972 13.1161 25.5121 12.5492C25.5121 11.9971 25.2734 11.475 24.8259 11.0274C24.0948 10.3262 23.1698 10.0278 22.4388 9.84878ZM13.4873 13.6383C13.0397 13.4891 12.622 13.2802 12.2788 13.0266C12.07 12.8774 11.9506 12.6983 11.9506 12.5342C11.9506 12.3403 12.0849 12.1463 12.3087 11.9822C13.0546 11.4451 13.9498 11.2363 14.651 11.1169C17.3066 10.6544 19.7235 10.7141 22.0658 11.2959C22.6477 11.4451 23.3041 11.654 23.7815 12.1165C23.886 12.2209 24.0053 12.3701 24.0053 12.5492C24.0053 12.7282 23.871 12.8774 23.7666 12.9818C23.4682 13.2504 23.0803 13.4592 22.4835 13.6532C21.1408 14.0709 19.7086 14.2649 17.9481 14.2499C16.1578 14.2499 14.7405 14.056 13.4873 13.6383Z" fill="#051B10"/>
<path d="M35.9851 22.0377C35.9403 20.3668 35.9552 18.666 35.9552 17.0099C35.9552 16.3087 35.9702 15.6075 35.9702 14.8914V12.937L35.9403 12.9519C35.9702 12.7132 35.9702 12.4596 35.9403 12.191C35.8508 11.4153 35.5375 10.6991 34.9557 10.0128C34.2097 9.13262 33.2698 8.44633 31.8972 7.76005C29.8533 6.74555 27.5707 6.05926 24.4973 5.53709C22.8711 5.26855 21.1256 5.10443 19.1712 5.04476C19.1562 5.04476 19.1264 5.04476 19.0966 5.02984C19.0667 5.02984 19.022 5.01492 18.9921 5.01492L17.1571 5L16.5305 5.02984C16.0829 5.05968 15.6204 5.0746 15.1728 5.10443C11.3087 5.37298 8.02652 6.07418 5.14712 7.2528C3.93867 7.74513 2.40199 8.49109 1.19354 9.80398C0.343141 10.729 -0.0596768 11.7435 0.0149192 12.758H0V17.1293C0 19.5462 0 21.9631 0 24.38C0 25.0216 0.17903 25.6482 0.507252 26.2449C1.04434 27.155 1.80522 27.886 3.01368 28.6171C5.54994 30.1687 8.36966 30.84 10.5479 31.2727C12.8156 31.7203 15.2027 31.9291 17.8135 31.9441H17.9776C19.8873 31.9441 21.6477 31.8396 23.3187 31.6009L24.2884 31.4666L23.8707 30.4671C23.8409 30.3925 23.811 30.3179 23.7812 30.2433C23.7215 30.0941 23.6469 29.9598 23.5872 29.8106C23.5723 29.7808 23.5574 29.736 23.5425 29.7062C23.8259 29.6763 24.0646 29.6465 24.0796 29.6465C26.5412 29.2735 28.5255 28.7663 30.3456 28.0501C31.5242 27.5877 33.046 26.9014 34.3589 25.7377C35.4927 24.6933 36.0298 23.4849 35.9851 22.0377ZM22.1252 30.2283C20.7824 30.3626 19.3651 30.4372 17.8135 30.4372C15.2922 30.4223 13.0095 30.2134 10.8313 29.7957C8.7874 29.3929 6.13179 28.7513 3.78947 27.334C2.81973 26.7373 2.19312 26.1703 1.80522 25.484C1.59635 25.126 1.49192 24.753 1.49192 24.38C1.49192 21.9631 1.49192 19.5462 1.49192 17.1293V16.1297C2.67053 17.0249 4.08786 17.7559 5.80356 18.3527C7.41484 18.9196 9.16038 19.3523 11.3237 19.7252C14.1285 20.2027 17.1123 20.3518 20.4095 20.1877C20.7675 20.1728 21.1107 20.143 21.4538 20.1131L20.4542 21.6946L22.6473 23.3208L20.9316 24.9768L22.901 26.8864C22.5429 27.2296 22.2147 27.5578 21.8715 27.8711C21.4687 28.2441 21.3792 28.7066 21.6328 29.2138C21.7373 29.4078 21.8268 29.6167 21.9163 29.8106C21.9909 29.9449 22.0655 30.0941 22.1252 30.2283ZM33.6129 14.3096C32.8222 15.1301 31.8077 15.7866 30.3904 16.3684C27.7049 17.4874 24.6316 18.1736 21.0211 18.4571C17.9329 18.6958 14.9341 18.5765 12.0845 18.1289C9.47368 17.7111 7.39992 17.1591 5.5947 16.3833C4.17737 15.7866 3.14795 15.1152 2.34231 14.2947C1.23829 13.1608 1.20845 11.9822 2.28264 10.8185C3.29714 9.71446 4.65479 9.07294 5.71405 8.64028C8.44426 7.52134 11.5773 6.84998 15.2623 6.61127C15.695 6.58143 16.1276 6.5516 16.5752 6.53668L17.2018 6.50684H18.8579H18.8728C18.9474 6.52176 19.0369 6.53668 19.1562 6.53668C21.051 6.59635 22.7368 6.74555 24.2884 7.01409C27.2126 7.50642 29.361 8.14795 31.2706 9.10278C32.4492 9.69954 33.2549 10.2814 33.8516 10.9826C34.2395 11.4302 34.4484 11.8927 34.4932 12.3701C34.5379 13.0116 34.2843 13.6233 33.6129 14.3096ZM24.378 28.0352C24.5868 27.8562 24.8255 27.6622 25.0195 27.4683L25.5864 26.9312L23.632 25.0216L25.7058 23.0373L22.9457 20.9785C23.1098 20.7248 23.2889 20.4563 23.4231 20.1579C23.438 20.1281 23.6171 19.8595 25.4671 19.5462L25.6759 19.5164C28.5852 18.9942 30.9126 18.2333 32.9714 17.0995C33.5383 16.7862 34.0307 16.4729 34.4932 16.1297C34.4932 16.3684 34.4932 16.5922 34.4932 16.8309V16.995C34.4782 18.6511 34.4782 20.3668 34.523 22.0676C34.5528 23.0671 34.1799 23.8728 33.3593 24.6038C32.4791 25.3945 31.3751 26.0211 29.8085 26.6477C28.2122 27.2743 26.4517 27.7368 24.3183 28.08C24.3332 28.0651 24.3481 28.0501 24.378 28.0352Z" fill="#051B10"/>
</svg>

<svg width="36" height="36" fill="none" xmlns="http://www.w3.org/2000/svg"><path d="M17.173 5.746h1.73c.09.015.164.03.254.03 1.76.06 3.506.194 5.236.492 2.492.418 4.924 1.015 7.191 2.149 1.06.522 2.044 1.148 2.82 2.073.433.522.746 1.09.82 1.776.12 1.044-.372 1.85-1.058 2.55-.985 1.015-2.179 1.702-3.477 2.239-3.073 1.283-6.296 1.88-9.593 2.133-3.043.239-6.087.15-9.1-.343-2.298-.358-4.536-.865-6.684-1.775-1.298-.552-2.507-1.239-3.491-2.253-1.403-1.432-1.433-3.044-.075-4.506 1.03-1.104 2.328-1.805 3.685-2.357 3.133-1.283 6.415-1.865 9.787-2.089.642-.044 1.298-.074 1.955-.119zm.805 9.25c1.611 0 3.208-.15 4.76-.642.566-.179 1.118-.417 1.566-.835.627-.582.642-1.358.015-1.954-.567-.553-1.298-.821-2.044-1-2.566-.642-5.162-.642-7.743-.194-.94.164-1.85.418-2.656 1-.865.626-.91 1.64-.044 2.267.417.299.91.537 1.402.716 1.537.508 3.133.642 4.744.642z" fill="#166D44"/><path d="M17.978 14.996c-1.611 0-3.193-.134-4.73-.642a4.988 4.988 0 01-1.402-.716c-.865-.626-.835-1.64.045-2.268.79-.566 1.716-.835 2.656-1 2.58-.462 5.177-.447 7.728.195.746.194 1.477.447 2.044 1 .611.596.611 1.357-.015 1.954-.448.418-1 .656-1.567.835-1.551.493-3.148.642-4.759.642zm5.61-2.462c-.164-.12-.269-.239-.403-.298-.418-.18-.835-.373-1.268-.478-2.402-.596-4.82-.611-7.25-.134-.657.134-1.299.388-1.925.657-.374.164-.359.283-.015.507.626.388 1.357.552 2.073.686 1.865.343 3.745.388 5.64.134.94-.134 1.88-.298 2.73-.76.134-.075.254-.194.418-.314z" fill="#fff"/><path d="M22.886 19.218c-.477.76-.94 1.492-1.432 2.268.776.581 1.552 1.148 2.342 1.73-.596.582-1.193 1.15-1.805 1.73a241.84 241.84 0 011.97 1.91c-.582.553-1.075 1.06-1.597 1.537-.164.15-.164.269-.075.463.284.552.537 1.134.791 1.7.045.09.075.194.134.299-1.82.239-3.61.343-5.415.328-2.387-.015-4.774-.194-7.117-.656-2.55-.493-5.042-1.194-7.28-2.552-.895-.537-1.716-1.193-2.253-2.118a3.061 3.061 0 01-.403-1.492v-9.906c.298.283.552.537.836.776 1.327 1.104 2.85 1.85 4.475 2.416 1.76.612 3.566 1.015 5.401 1.328 2.954.508 5.938.612 8.922.448.82-.045 1.64-.134 2.506-.209z" fill="#166D44"/><path d="M35.225 14.489v.402c0 2.388-.045 4.775.015 7.162.03 1.298-.478 2.282-1.403 3.118-1.104 1-2.402 1.64-3.774 2.178-1.97.776-4.029 1.238-6.117 1.552-.075.015-1.164.149-1.313.149-.03-.701 1.178-1.462 1.88-2.119-.702-.671-1.313-1.283-1.955-1.91.672-.64 1.313-1.253 2-1.91-.91-.67-1.761-1.297-2.626-1.939.283-.447.596-.85.82-1.312.328-.702 2.059-.94 2.79-1.075 2.462-.432 4.849-1.119 7.057-2.327.895-.492 1.716-1.06 2.432-1.79.044-.06.104-.105.194-.18z" fill="#166D44"/><path d="M22.44 9.849c-2.552-.642-5.178-.701-8.042-.194-.866.15-1.97.418-2.954 1.119-.627.447-.985 1.089-.985 1.76 0 .672.328 1.268.94 1.716a6.168 6.168 0 001.596.806c1.403.462 2.97.686 4.909.686h.149c1.895 0 3.446-.209 4.893-.672.552-.178 1.254-.447 1.85-1 .463-.432.701-.954.716-1.52 0-.553-.238-1.075-.686-1.523-.73-.7-1.656-1-2.387-1.178zm-8.952 3.79a4.383 4.383 0 01-1.209-.612c-.209-.15-.328-.329-.328-.493 0-.194.134-.388.358-.552.746-.537 1.641-.746 2.342-.865 2.656-.463 5.073-.403 7.415.179.582.15 1.238.358 1.716.82.104.105.224.254.224.433 0 .18-.135.328-.24.433-.297.268-.685.477-1.282.671-1.343.418-2.775.612-4.536.597-1.79 0-3.207-.194-4.46-.612z" fill="#051B10"/><path d="M35.985 22.038c-.045-1.671-.03-3.372-.03-5.028 0-.701.015-1.403.015-2.119v-1.954l-.03.015c.03-.239.03-.492 0-.761-.09-.776-.402-1.492-.984-2.178-.746-.88-1.686-1.567-3.059-2.253-2.044-1.014-4.326-1.7-7.4-2.223-1.626-.268-3.371-.433-5.326-.492-.015 0-.045 0-.074-.015-.03 0-.075-.015-.105-.015L17.157 5l-.627.03c-.447.03-.91.045-1.357.074-3.864.269-7.146.97-10.026 2.149-1.208.492-2.745 1.238-3.953 2.551-.85.925-1.254 1.94-1.18 2.954H0V24.38c0 .642.179 1.268.507 1.865.537.91 1.298 1.641 2.507 2.372 2.536 1.552 5.356 2.223 7.534 2.656 2.268.447 4.655.656 7.266.671h.164c1.91 0 3.67-.104 5.34-.343l.97-.134-.417-1-.09-.224c-.06-.149-.134-.283-.194-.432-.015-.03-.03-.075-.044-.105.283-.03.522-.06.537-.06 2.461-.373 4.446-.88 6.266-1.596 1.178-.462 2.7-1.149 4.013-2.312 1.134-1.045 1.67-2.253 1.626-3.7zm-13.86 8.19c-1.343.135-2.76.21-4.311.21-2.522-.016-4.805-.225-6.983-.642-2.044-.403-4.7-1.045-7.042-2.462-.97-.597-1.596-1.164-1.984-1.85a2.178 2.178 0 01-.313-1.104v-8.25c1.179.895 2.596 1.626 4.312 2.223 1.61.567 3.356 1 5.52 1.372 2.805.478 5.788.627 9.086.463.357-.015.7-.045 1.044-.075l-1 1.582 2.193 1.626-1.715 1.656 1.969 1.91c-.358.343-.686.67-1.03.984-.402.373-.492.836-.238 1.343.104.194.194.403.283.597.075.134.15.283.21.417zM33.613 14.31c-.79.82-1.805 1.477-3.223 2.058-2.685 1.12-5.758 1.806-9.369 2.09a38.46 38.46 0 01-8.937-.33c-2.61-.417-4.684-.969-6.49-1.745-1.417-.596-2.446-1.268-3.252-2.088-1.104-1.134-1.134-2.313-.06-3.476C3.298 9.713 4.656 9.072 5.715 8.64c2.73-1.119 5.863-1.79 9.548-2.029.433-.03.866-.06 1.313-.074l.627-.03h1.67c.074.015.164.03.283.03 1.895.06 3.58.209 5.132.477 2.925.492 5.073 1.134 6.983 2.089 1.178.597 1.984 1.178 2.58 1.88.389.447.597.91.642 1.387.045.642-.209 1.253-.88 1.94zm-9.235 13.725c.209-.179.448-.373.642-.567l.566-.537-1.954-1.91 2.074-1.984-2.76-2.058c.164-.254.343-.523.477-.821.015-.03.194-.299 2.044-.612l.209-.03c2.91-.522 5.237-1.283 7.295-2.416.567-.314 1.06-.627 1.522-.97v.865c-.015 1.656-.015 3.372.03 5.073.03 1-.343 1.805-1.164 2.536-.88.79-1.984 1.417-3.55 2.044-1.597.626-3.357 1.089-5.49 1.432a.2.2 0 01.059-.045z" fill="#051B10"/></svg>
